X: 8242
T: Coral Castle, The
R: reel
M: 4/4
K: Bminor
f2 ed B3B|BA dB BA FA|B2 dB BA cd|ec Ac dB fg|
f2 ed B3B|BA dB BA FA|(3Bcd ec a2 fe|1 ef d4 fg:|2 ef d3d de||
|:cB Bd dc cA|BA B2 BA B2|cB Bc E2 BA|BA2 FE2 Bd|
e GBd edcd|f FBdfd ed|c2 Bc Ae dc|dd BA B4:|
|:BA BG f2 dB|BG fB de ff|e2 BA f2 de-|ed2 Bdefd|
b4 b2 ba-|a2 dA defa-|a2 e3e ed|ef ed dB-B2:|

